public/assets/img/main-point4.svg

<svg width="58" height="58" viewBox="0 0 58 58" fill="none" xmlns="http://www.w3.org/2000/svg">
<path d="M16.6813 0.150757C17.0824 0.150757 17.4983 0.150757 17.8993 0.150757C17.9291 0.180544 17.9588 0.210331 17.9885 0.225225C19.7858 0.612459 21.0039 2.68267 20.1572 4.60395C20.0978 4.7231 20.1869 5.00608 20.2909 5.11033C20.9296 5.69118 21.0336 6.37629 20.8553 7.19544C20.5434 8.62523 20.2612 10.0699 20.0086 11.5146C19.9789 11.7082 20.0532 11.9912 20.1869 12.1252C20.8405 12.8103 21.5386 13.4657 22.1774 14.1508C22.4596 14.4635 22.7121 14.4635 23.0983 14.3593C24.1233 14.0465 25.1631 13.7784 26.2177 13.5699C26.8119 13.4508 27.2129 13.8827 27.1684 14.4337C27.1238 14.9848 26.7525 15.1635 26.2623 15.238C18.746 16.4891 13.7402 23.3699 14.8691 30.8763C15.998 38.3678 23.3806 43.6103 30.8522 42.2401C37.1356 41.0784 41.6958 36.1337 42.2009 29.7891C42.5871 24.9039 40.76 20.9125 36.9276 17.8891C35.0263 16.3848 32.8279 15.521 30.4363 15.1933C29.7233 15.1039 29.3371 14.7018 29.4114 14.1954C29.5005 13.6444 29.9758 13.3614 30.6443 13.5103C31.7732 13.7784 32.9021 14.0912 34.031 14.3593C34.2241 14.4039 34.5064 14.3593 34.6401 14.2401C35.3679 13.555 36.0809 12.8401 36.7642 12.1103C36.8979 11.9763 36.987 11.6933 36.9425 11.4997C36.6751 10.055 36.4077 8.62523 36.0958 7.18054C35.9175 6.3614 36.0066 5.6614 36.6899 5.11033C36.9722 4.88693 36.8533 4.69331 36.7642 4.44012C36.2146 2.99544 36.7494 1.38693 38.0714 0.61246C38.3833 0.418843 38.7398 0.314588 39.0815 0.165651C39.4825 0.165651 39.8985 0.165651 40.2995 0.165651C40.3589 0.195439 40.4332 0.240119 40.4926 0.269906C42.3346 0.865651 43.2555 2.57842 42.6613 4.33586C42.0672 6.07842 40.2698 6.86778 38.4427 6.21246C38.3091 6.16778 38.0565 6.18267 37.9823 6.27203C37.8634 6.42097 37.7446 6.65927 37.7892 6.83799C38.0714 8.32735 38.3536 9.83161 38.6804 11.321C38.8438 12.0954 38.6804 12.7061 38.116 13.2422C37.4178 13.9125 36.7494 14.5976 36.0661 15.2678C37.0167 15.938 37.908 16.5784 38.8438 17.2337C40.5669 15.5061 42.29 13.7486 44.0279 12.021C44.2508 11.7976 44.221 11.6337 44.0725 11.3954C43.5377 10.4869 43.3892 9.48906 43.5823 8.49118C43.924 6.67416 45.0083 5.43799 46.8057 4.9465C48.5733 4.45501 50.133 4.9465 51.3362 6.31671C52.5543 7.71671 52.7919 9.34012 52.0641 11.0529C51.0391 13.4359 48.2168 14.3891 45.8847 13.1976C45.7213 13.1082 45.3797 13.0784 45.2757 13.1827C43.508 14.9103 41.7701 16.6678 40.0321 18.4103C40.7006 19.3337 41.3542 20.2125 42.0375 21.1508C42.7356 20.4359 43.4189 19.7508 44.0873 19.0508C44.5775 18.5444 45.142 18.3954 45.8104 18.5295C47.281 18.8274 48.7516 19.1252 50.2222 19.3933C50.445 19.438 50.7569 19.3635 50.9352 19.2295C51.0391 19.155 50.9946 18.8125 50.9203 18.6188C50.341 16.9657 51.158 15.1635 52.8068 14.5678C54.4556 13.972 56.2233 14.7912 56.8323 16.4593C56.8917 16.6082 56.9511 16.772 57.0105 16.921C57.0105 17.3231 57.0105 17.7401 57.0105 18.1422C56.9808 18.172 56.9511 18.2018 56.9363 18.2316C56.5649 20.0039 54.515 21.2699 52.5691 20.4061C52.4503 20.3465 52.168 20.4359 52.0641 20.555C51.4848 21.1954 50.8015 21.2997 49.9845 21.1359C48.5585 20.8231 47.1176 20.5401 45.6768 20.2869C45.4836 20.2571 45.2014 20.3316 45.0677 20.4657C44.3696 21.121 43.7011 21.8359 43.003 22.5061C42.795 22.6997 42.7505 22.8635 42.8545 23.1316C44.325 26.8997 44.325 30.6678 42.8545 34.4359C42.7505 34.704 42.8099 34.8678 43.003 35.0614C43.7011 35.7316 44.3547 36.4316 45.0677 37.1018C45.2163 37.2359 45.4836 37.3252 45.6768 37.2805C47.1176 37.0125 48.5585 36.7444 49.9845 36.4316C50.8015 36.2529 51.4996 36.3423 52.0492 37.0274C52.272 37.3103 52.4651 37.1912 52.7177 37.1018C53.8317 36.6848 54.8567 36.8635 55.8073 37.5635C56.4312 38.0252 56.7135 38.7103 56.9808 39.4103C56.9808 39.8125 56.9808 40.2295 56.9808 40.6316C56.9363 40.7359 56.8917 40.8401 56.862 40.9295C56.2975 42.672 54.515 43.5805 52.8216 42.9848C51.0986 42.3891 50.2816 40.572 50.9352 38.8146C50.9946 38.6657 50.9946 38.3827 50.9054 38.2933C50.7569 38.1593 50.4895 38.0699 50.2816 38.0997C48.8407 38.3678 47.3998 38.621 45.9738 38.9635C45.0974 39.172 44.429 38.9486 43.8348 38.2933C43.2407 37.638 42.6019 37.0274 41.9781 36.4018C41.2799 37.355 40.6412 38.2337 39.9876 39.1422C41.6513 40.8103 43.3298 42.4635 44.9786 44.1465C45.2905 44.4593 45.4985 44.5635 45.9441 44.3252C48.7961 42.8508 52.2572 44.8763 52.4057 48.0635C52.4948 49.9848 51.3956 51.7274 49.6428 52.4422C47.8752 53.172 45.9144 52.7103 44.6072 51.2805C43.3595 49.9103 43.107 47.8699 44.0131 46.1869C44.1913 45.8593 44.1616 45.6805 43.9091 45.4274C42.2603 43.7891 40.6263 42.1359 38.9775 40.4976C38.9032 40.4231 38.829 40.3635 38.7695 40.3188C37.8337 40.9742 36.9425 41.6146 36.0215 42.2699C36.7345 42.9699 37.4475 43.6848 38.1605 44.3848C38.6507 44.8763 38.8141 45.4422 38.6804 46.1125C38.3833 47.5869 38.0862 49.0614 37.8189 50.5359C37.7743 50.7593 37.8486 51.072 37.9823 51.2508C38.0565 51.355 38.3982 51.3103 38.5913 51.2359C39.8985 50.7742 41.3542 51.1912 42.186 52.2933C43.0327 53.3954 43.0476 54.8848 42.2306 56.0465C41.7404 56.7465 41.0422 57.0742 40.2847 57.3571C39.8836 57.3571 39.4677 57.3571 39.0666 57.3571C39.0369 57.3274 39.0072 57.2976 38.9775 57.2827C37.195 56.9103 35.9621 54.8401 36.8088 52.904C36.8682 52.7848 36.7791 52.5018 36.6751 52.3976C36.0364 51.8167 35.9175 51.1316 36.0958 50.3125C36.4077 48.8827 36.6899 47.438 36.9425 45.9933C36.9722 45.7997 36.8979 45.5167 36.7642 45.3827C36.0809 44.6529 35.3679 43.938 34.6401 43.2529C34.5064 43.1337 34.1944 43.0593 34.031 43.1188C30.3323 44.4742 26.6336 44.4742 22.9349 43.1188C22.7715 43.0593 22.4596 43.1188 22.3259 43.2529C21.598 43.938 20.885 44.6529 20.2018 45.3827C20.0681 45.5316 19.9789 45.7997 20.0235 45.9933C20.2909 47.438 20.5583 48.8678 20.8702 50.3125C21.0484 51.1167 20.9593 51.8316 20.2909 52.3827C20.0532 52.5763 20.0829 52.755 20.1869 53.0082C20.6325 54.1401 20.4691 55.1827 19.7413 56.1657C19.2808 56.7912 18.5975 57.0742 17.8993 57.3423C17.4983 57.3423 17.0824 57.3423 16.6813 57.3423C16.5328 57.2827 16.3694 57.2231 16.2208 57.1635C14.9136 56.6869 14.067 55.4061 14.1412 54.0508C14.2155 52.6806 15.181 51.4891 16.5179 51.1465C17.32 50.9529 18.0925 51.0571 18.8203 51.4146C19.1917 51.1912 19.2956 50.9529 19.1917 50.521C18.8797 49.121 18.6718 47.7061 18.345 46.321C18.137 45.4422 18.345 44.772 18.9986 44.1614C19.667 43.5359 20.3057 42.8657 20.9445 42.2401C19.9938 41.5699 19.1025 40.9295 18.2856 40.3486C16.4585 42.1805 14.6463 43.9976 12.7895 45.8444C13.4728 46.9167 13.651 48.138 13.3391 49.4188C12.7598 51.7422 10.3534 53.1571 7.99157 52.6061C5.73373 52.0848 4.2186 49.7614 4.64937 47.4827C5.22869 44.4295 8.42235 42.8805 11.1555 44.3103C11.3783 44.4295 11.5417 44.5635 11.7794 44.3103C13.5173 42.5529 15.2702 40.8103 16.9932 39.0827C16.3248 38.1593 15.6861 37.2805 14.9879 36.3423C14.3046 37.0274 13.6213 37.7125 12.9677 38.3976C12.4627 38.9337 11.8685 39.0827 11.1407 38.9337C9.68496 38.621 8.2441 38.338 6.78838 38.0699C6.56557 38.0252 6.25363 38.0997 6.07538 38.2337C5.9714 38.3082 6.01596 38.6508 6.09023 38.8444C6.56557 40.1997 6.10509 41.7039 4.94646 42.5082C3.77297 43.3274 2.18357 43.3274 1.14378 42.3295C0.638734 41.8529 0.371356 41.138 0 40.5274C0 40.1252 0 39.7082 0 39.3061C0.0297085 39.2763 0.0594169 39.2465 0.0742711 39.2167C0.445627 37.4295 2.51037 36.1933 4.44142 37.0423C4.56025 37.1018 4.84248 37.0125 4.94646 36.9082C5.52577 36.2678 6.20907 36.1486 7.02605 36.3274C8.45205 36.6401 9.89291 36.9231 11.3338 37.1763C11.5269 37.2061 11.8091 37.1316 11.9428 36.9976C12.641 36.3422 13.3094 35.6274 14.0075 34.9571C14.2155 34.7635 14.2601 34.5997 14.1561 34.3316C12.6855 30.5635 12.6855 26.7954 14.1561 23.0274C14.2601 22.7593 14.2006 22.5954 14.0075 22.4018C13.3094 21.7316 12.6558 21.0316 11.9428 20.3614C11.7943 20.2274 11.5269 20.138 11.3338 20.1827C9.89291 20.4508 8.45205 20.7188 7.02605 21.0316C6.22392 21.2103 5.51092 21.121 4.96132 20.4508C4.7385 20.1827 4.5454 20.272 4.29288 20.3763C3.17881 20.7933 2.15387 20.6295 1.2032 19.9146C0.57932 19.4529 0.297086 18.7678 0.0297103 18.0678C0.0297103 17.6656 0.0297103 17.2486 0.0297103 16.8465C0.074273 16.7274 0.118839 16.6082 0.163402 16.4891C0.757571 14.7614 2.55493 13.8827 4.23346 14.4933C5.91198 15.1039 6.71412 16.921 6.07538 18.6486C6.01597 18.7976 6.01597 19.0805 6.10509 19.1699C6.25364 19.304 6.52101 19.3933 6.71411 19.3635C8.16983 19.0954 9.62554 18.8274 11.0664 18.4997C11.8982 18.3061 12.5518 18.5146 13.1163 19.1252C13.7253 19.7954 14.364 20.4359 15.0028 21.0912C15.7158 20.1231 16.3545 19.2444 17.023 18.321C15.285 16.5933 13.5471 14.8508 11.8091 13.0933C11.5714 12.8401 11.408 12.9742 11.1852 13.0933C9.5067 13.9274 7.85789 13.8529 6.37247 12.7061C4.9019 11.5891 4.35229 10.0401 4.70879 8.20821C5.12471 6.06352 7.18945 4.51459 9.40273 4.67842C11.6309 4.84225 13.4282 6.70395 13.5173 8.9231C13.5619 9.92097 13.2945 10.8146 12.8192 11.6188C14.676 13.4805 16.4733 15.2827 18.2856 17.0997C19.162 16.4891 20.0532 15.8486 21.0187 15.1635C20.2909 14.4486 19.5779 13.7486 18.8649 13.0486C18.3747 12.572 18.2261 11.9912 18.3598 11.321C18.6569 9.8614 18.9243 8.40182 19.2362 6.95714C19.3254 6.52523 19.2956 6.24225 18.8797 6.00395C18.7609 6.04863 18.6272 6.1082 18.4935 6.15289C16.8298 6.77842 15.0028 5.95927 14.4086 4.29118C13.7996 2.6231 14.6611 0.82097 16.3397 0.225225C16.4139 0.255012 16.5476 0.210331 16.6813 0.150757ZM45.1866 48.2274C45.1717 49.7763 46.4195 51.0422 47.9494 51.0571C49.4497 51.0571 50.7123 49.821 50.7421 48.3018C50.7718 46.7976 49.524 45.5167 48.0237 45.4869C46.4789 45.472 45.2014 46.6933 45.1866 48.2274ZM47.9792 11.9912C49.4943 11.9912 50.7421 10.7401 50.7421 9.22097C50.7569 7.70182 49.4646 6.40608 47.9494 6.42097C46.4343 6.43586 45.2014 7.68693 45.1866 9.19118C45.1866 10.755 46.4343 12.0061 47.9792 11.9912ZM11.7794 48.2571C11.7645 46.7082 10.5168 45.4869 8.9571 45.5018C7.45682 45.5167 6.20907 46.7976 6.22393 48.3018C6.23878 49.821 7.48654 51.0571 9.00167 51.072C10.5317 51.0571 11.7943 49.7912 11.7794 48.2571ZM11.7794 9.20608C11.7794 7.68693 10.5465 6.45076 9.03137 6.42097C7.51624 6.40608 6.22393 7.68693 6.22393 9.20608C6.22393 10.7252 7.47168 11.9763 8.98681 11.9763C10.5316 12.0061 11.7794 10.7699 11.7794 9.20608ZM3.08968 18.9465C3.90666 18.9465 4.53055 18.321 4.5454 17.5167C4.5454 16.7125 3.90667 16.072 3.10454 16.0571C2.31726 16.0571 1.64882 16.7125 1.63397 17.5018C1.63397 18.2912 2.28755 18.9465 3.08968 18.9465ZM53.8317 18.9465C54.6487 18.9614 55.3023 18.3508 55.332 17.5465C55.3617 16.772 54.7081 16.0869 53.9208 16.0571C53.1187 16.0274 52.4503 16.6678 52.4354 17.4571C52.4057 18.2763 53.0147 18.9316 53.8317 18.9465ZM53.9208 38.5465C53.1039 38.5167 52.4503 39.1274 52.4206 39.9316C52.3909 40.7359 53.0147 41.4061 53.8169 41.4359C54.6041 41.4657 55.2874 40.8252 55.332 40.0359C55.3617 39.2465 54.723 38.5614 53.9208 38.5465ZM18.7163 54.2146C18.7312 53.3954 18.1073 52.755 17.3052 52.755C16.503 52.755 15.8495 53.3805 15.8495 54.1848C15.8346 54.9742 16.4882 55.6593 17.2755 55.6593C18.0479 55.6742 18.7015 55.0188 18.7163 54.2146ZM38.2645 54.1848C38.2645 54.9891 38.9032 55.6444 39.6905 55.6444C40.4778 55.6444 41.1314 54.9742 41.1314 54.1848C41.1314 53.3805 40.4926 52.7401 39.6905 52.7401C38.8884 52.7401 38.2645 53.3805 38.2645 54.1848ZM18.7163 3.3231C18.7312 2.50395 18.1073 1.84863 17.32 1.83374C16.5476 1.80395 15.8643 2.47416 15.8495 3.26352C15.8346 4.06778 16.4585 4.7231 17.2606 4.73799C18.0627 4.75289 18.7015 4.12735 18.7163 3.3231ZM38.2645 3.26352C38.2496 4.08267 38.8735 4.7231 39.6757 4.73799C40.4778 4.75289 41.1314 4.11246 41.1462 3.3231C41.1611 2.53374 40.5075 1.84863 39.7202 1.83374C38.9329 1.80395 38.2645 2.45927 38.2645 3.26352ZM3.08968 38.5316C2.28755 38.5316 1.63397 39.1869 1.63397 39.9763C1.63397 40.7657 2.31726 41.421 3.10454 41.421C3.90667 41.421 4.5454 40.7657 4.5454 39.9614C4.5454 39.1571 3.90666 38.5316 3.08968 38.5316Z" fill="white"/>
<path d="M16.7407 28.8806C16.7258 22.9827 21.0781 17.9933 26.8119 17.2338C33.0804 16.3997 38.6953 20.3167 39.9876 26.4678C40.5817 29.3274 40.1064 32.0529 38.6358 34.5848C38.2793 35.2104 37.8486 35.3891 37.3732 35.121C36.883 34.8529 36.8236 34.3763 37.1801 33.721C40.2549 28.2401 37.8189 21.5678 31.9514 19.4082C26.1434 17.2636 19.8007 20.838 18.5826 26.9146C17.5428 32.1274 21.1376 37.4295 26.3662 38.4721C29.3222 39.0529 32.0257 38.4572 34.4915 36.7295C34.744 36.5508 35.1897 36.4912 35.5016 36.5657C35.6947 36.6104 35.9621 37.0274 35.9472 37.2359C35.9175 37.5338 35.6947 37.9061 35.4422 38.0848C33.3774 39.6189 31.0602 40.3784 28.4904 40.3784C22.5338 40.3784 17.6022 36.0891 16.8001 30.1614C16.7704 29.6997 16.7704 29.2231 16.7407 28.8806Z" fill="white"/>
</svg>

<svg width="58" height="58" fill="none" xmlns="http://www.w3.org/2000/svg"><path d="M16.681.15H17.9c.03.03.06.06.09.075 1.797.387 3.015 2.458 2.168 4.379-.06.12.03.402.134.506.639.581.743 1.266.564 2.085-.312 1.43-.594 2.875-.846 4.32-.03.193.044.476.178.61.653.685 1.352 1.34 1.99 2.026.283.313.535.313.921.208a31.866 31.866 0 0 1 3.12-.79c.594-.118.995.314.95.865-.044.55-.415.73-.906.804-7.516 1.251-12.522 8.132-11.393 15.638 1.129 7.492 8.512 12.734 15.983 11.364 6.284-1.162 10.844-6.106 11.349-12.45.386-4.886-1.441-8.877-5.273-11.9-1.902-1.505-4.1-2.369-6.492-2.697-.713-.09-1.099-.491-1.025-.998.09-.55.565-.834 1.233-.685 1.13.268 2.258.581 3.387.85.193.044.475 0 .61-.12.727-.685 1.44-1.4 2.123-2.13a.753.753 0 0 0 .178-.61 147.872 147.872 0 0 0-.846-4.32c-.178-.819-.09-1.519.594-2.07.282-.223.163-.417.074-.67-.55-1.445-.015-3.053 1.307-3.828.312-.193.669-.297 1.01-.446H40.3c.06.03.134.074.194.104 1.842.596 2.762 2.308 2.168 4.066-.594 1.742-2.391 2.532-4.218 1.876-.134-.044-.386-.03-.46.06-.12.149-.238.387-.194.566.282 1.49.565 2.994.891 4.483.164.774 0 1.385-.564 1.921-.698.67-1.367 1.356-2.05 2.026.95.67 1.842 1.31 2.778 1.966 1.723-1.728 3.446-3.485 5.184-5.213.223-.223.193-.387.044-.626a4.084 4.084 0 0 1-.49-2.904c.342-1.817 1.426-3.053 3.224-3.544 1.767-.492 3.327 0 4.53 1.37 1.218 1.4 1.456 3.023.728 4.736-1.025 2.383-3.847 3.336-6.18 2.145-.163-.09-.504-.12-.608-.015-1.768 1.727-3.506 3.485-5.244 5.227.669.924 1.322 1.802 2.006 2.74.698-.714 1.38-1.4 2.05-2.1.49-.506 1.054-.655 1.722-.52 1.471.297 2.942.595 4.412.863.223.045.535-.03.713-.163.104-.075.06-.418-.015-.611-.579-1.653.238-3.455 1.887-4.051 1.649-.596 3.416.223 4.025 1.891.06.15.12.313.178.462v1.221c-.03.03-.059.06-.074.09-.371 1.772-2.421 3.038-4.367 2.174-.119-.06-.401.03-.505.149-.58.64-1.263.745-2.08.58a104.772 104.772 0 0 0-4.307-.848c-.193-.03-.476.045-.61.179-.697.655-1.366 1.37-2.064 2.04-.208.194-.252.357-.148.626 1.47 3.768 1.47 7.536 0 11.304-.104.268-.045.432.148.625.698.67 1.352 1.37 2.065 2.04.148.135.416.224.609.18 1.44-.268 2.882-.537 4.307-.85.817-.178 1.516-.089 2.065.596.223.283.416.164.669.075 1.114-.417 2.139-.238 3.09.462.623.461.906 1.146 1.173 1.846v1.222c-.045.104-.09.208-.119.297-.565 1.743-2.347 2.651-4.04 2.056-1.723-.596-2.54-2.413-1.887-4.17.06-.15.06-.432-.03-.522a.85.85 0 0 0-.623-.193c-1.441.268-2.882.521-4.308.864-.877.208-1.545-.015-2.14-.67-.593-.656-1.232-1.267-1.856-1.892-.698.953-1.337 1.832-1.99 2.74 1.663 1.668 3.342 3.322 4.99 5.005.313.312.52.416.966.178 2.852-1.474 6.313.551 6.462 3.738.089 1.922-1.01 3.664-2.763 4.38-1.768.729-3.729.267-5.036-1.162-1.248-1.37-1.5-3.411-.594-5.094.178-.328.149-.506-.104-.76-1.649-1.638-3.283-3.291-4.931-4.93a1.925 1.925 0 0 0-.209-.178c-.935.655-1.826 1.296-2.747 1.95.712.7 1.425 1.416 2.139 2.116.49.491.653 1.057.52 1.727a231.288 231.288 0 0 0-.862 4.424c-.045.223.03.536.163.715.075.104.416.06.61-.015 1.306-.462 2.762-.045 3.594 1.057.847 1.102.862 2.592.045 3.754-.49.7-1.189 1.027-1.946 1.31h-1.218c-.03-.03-.06-.06-.09-.074-1.782-.373-3.015-2.443-2.168-4.379.06-.12-.03-.402-.134-.506-.639-.581-.758-1.266-.58-2.086.313-1.43.595-2.874.848-4.319.03-.193-.045-.476-.179-.61a47.828 47.828 0 0 0-2.124-2.13c-.134-.12-.446-.194-.609-.134-3.699 1.355-7.397 1.355-11.096 0-.163-.06-.475 0-.61.134-.727.685-1.44 1.4-2.123 2.13-.134.149-.223.417-.179.61.268 1.445.535 2.875.847 4.32.178.804.09 1.519-.58 2.07-.237.193-.207.372-.103.625.445 1.132.282 2.175-.446 3.158-.46.625-1.143.908-1.842 1.176h-1.218c-.148-.06-.312-.119-.46-.178-1.307-.477-2.154-1.758-2.08-3.113a3.189 3.189 0 0 1 2.377-2.904c.802-.194 1.575-.09 2.302.268.372-.224.476-.462.372-.894-.312-1.4-.52-2.815-.847-4.2-.208-.879 0-1.549.654-2.16.668-.625 1.307-1.295 1.946-1.92-.951-.671-1.843-1.312-2.66-1.892-1.826 1.832-3.639 3.649-5.495 5.495.683 1.073.861 2.294.55 3.575-.58 2.323-2.987 3.738-5.348 3.187-2.258-.521-3.773-2.845-3.343-5.123.58-3.053 3.773-4.602 6.506-3.173.223.12.387.253.624 0 1.738-1.757 3.491-3.5 5.214-5.227a251.064 251.064 0 0 0-2.005-2.74c-.683.684-1.367 1.37-2.02 2.055-.505.536-1.1.685-1.827.536a150.043 150.043 0 0 0-4.353-.864 1.003 1.003 0 0 0-.713.164c-.104.074-.059.417.015.61.476 1.356.015 2.86-1.144 3.664-1.173.82-2.762.82-3.802-.178C.639 41.853.37 41.138 0 40.527v-1.22c.03-.03.06-.06.074-.09.372-1.788 2.436-3.024 4.367-2.175.12.06.401-.03.505-.134.58-.64 1.263-.76 2.08-.58 1.426.312 2.867.595 4.308.848.193.03.475-.044.609-.178.698-.656 1.366-1.37 2.065-2.04.208-.194.252-.358.148-.626-1.47-3.768-1.47-7.537 0-11.305.104-.268.045-.432-.149-.625-.698-.67-1.351-1.37-2.064-2.04-.149-.135-.416-.224-.61-.18-1.44.269-2.881.537-4.307.85-.802.178-1.515.089-2.065-.581-.223-.268-.416-.179-.668-.075-1.114.417-2.14.253-3.09-.461C.58 19.453.297 18.768.03 18.068v-1.222l.133-.357c.595-1.728 2.392-2.606 4.07-1.996 1.679.61 2.481 2.428 1.842 4.156-.059.149-.059.431.03.52a.834.834 0 0 0 .61.194c1.455-.268 2.91-.536 4.351-.863.832-.194 1.486.015 2.05.625.61.67 1.248 1.31 1.887 1.966.713-.968 1.352-1.847 2.02-2.77a863.49 863.49 0 0 1-5.214-5.228c-.238-.253-.401-.119-.624 0-1.678.834-3.327.76-4.813-.387-1.47-1.117-2.02-2.666-1.663-4.498.416-2.144 2.48-3.693 4.694-3.53 2.228.164 4.025 2.026 4.114 4.245.045.998-.223 1.892-.698 2.696l5.467 5.48c.876-.61 1.767-1.25 2.733-1.935l-2.154-2.115c-.49-.477-.639-1.058-.505-1.728.297-1.46.564-2.92.876-4.364.09-.432.06-.715-.356-.953-.12.045-.253.104-.386.149-1.664.625-3.491-.194-4.085-1.862-.61-1.668.252-3.47 1.93-4.066.075.03.209-.015.342-.074Zm28.506 48.077a2.803 2.803 0 0 0 2.762 2.83c1.5 0 2.763-1.236 2.793-2.755.03-1.504-1.218-2.785-2.718-2.815-1.545-.015-2.823 1.206-2.837 2.74Zm2.792-36.236a2.78 2.78 0 0 0 2.763-2.77c.015-1.52-1.277-2.815-2.793-2.8-1.515.015-2.748 1.266-2.762 2.77 0 1.564 1.247 2.815 2.792 2.8Zm-36.2 36.266a2.771 2.771 0 0 0-2.822-2.755c-1.5.015-2.748 1.296-2.733 2.8a2.813 2.813 0 0 0 2.778 2.77c1.53-.015 2.792-1.28 2.777-2.815Zm0-39.05c0-1.52-1.232-2.756-2.748-2.786-1.515-.015-2.807 1.266-2.807 2.785a2.78 2.78 0 0 0 2.763 2.77c1.545.03 2.792-1.206 2.792-2.77Zm-8.69 9.74c.818 0 1.442-.626 1.456-1.43 0-.805-.638-1.445-1.44-1.46a1.49 1.49 0 0 0-1.471 1.445c0 .79.654 1.445 1.456 1.445Zm50.743 0c.817.014 1.47-.596 1.5-1.4.03-.775-.624-1.46-1.411-1.49-.802-.03-1.47.61-1.486 1.4-.03.82.58 1.475 1.397 1.49Zm.089 19.6c-.817-.03-1.47.58-1.5 1.385a1.449 1.449 0 0 0 1.396 1.504c.787.03 1.47-.61 1.515-1.4a1.448 1.448 0 0 0-1.411-1.49ZM18.716 54.215c.015-.82-.609-1.46-1.41-1.46-.803 0-1.457.625-1.457 1.43-.014.79.64 1.474 1.427 1.474.772.015 1.425-.64 1.44-1.444Zm19.548-.03c0 .804.64 1.46 1.426 1.46.788 0 1.441-.67 1.441-1.46 0-.805-.638-1.445-1.44-1.445-.803 0-1.427.64-1.427 1.445ZM18.716 3.323c.015-.819-.609-1.474-1.396-1.49-.772-.03-1.456.641-1.47 1.43a1.435 1.435 0 0 0 1.41 1.475c.803.015 1.441-.61 1.456-1.415Zm19.548-.06c-.014.82.61 1.46 1.412 1.475a1.444 1.444 0 0 0 1.47-1.415c.015-.79-.639-1.474-1.426-1.49-.787-.03-1.456.626-1.456 1.43ZM3.09 38.533c-.802 0-1.456.655-1.456 1.444 0 .79.683 1.445 1.47 1.445.803 0 1.441-.655 1.441-1.46 0-.804-.638-1.43-1.455-1.43Z" fill="#fff"/><path d="M16.74 28.88c-.014-5.897 4.338-10.887 10.072-11.646 6.268-.834 11.883 3.083 13.176 9.234.594 2.86.118 5.585-1.352 8.117-.357.625-.787.804-1.263.536-.49-.268-.55-.745-.193-1.4 3.075-5.48.639-12.153-5.229-14.313-5.808-2.144-12.15 1.43-13.368 7.507-1.04 5.212 2.555 10.514 7.783 11.557 2.956.58 5.66-.015 8.126-1.742.252-.18.698-.239 1.01-.164.193.044.46.461.445.67-.03.298-.252.67-.505.849-2.065 1.534-4.382 2.293-6.952 2.293-5.956 0-10.888-4.289-11.69-10.217-.03-.461-.03-.938-.06-1.28Z" fill="#fff"/></svg>
